packages/core/src/svgs/brick.svg

<svg width="24" height="24" viewBox="0 0 24 24" fill="none" xmlns="http://www.w3.org/2000/svg">
<g clip-path="url(#clip0_31_7336)">
<path d="M0 0H24V24H0V0Z" fill="#F0F3FA"/>
<path d="M11.6571 5.14296H12.1071C14.2285 5.91439 16.35 6.68581 18.4543 7.4701C18.6471 7.53867 18.78 7.7101 18.8571 7.98439V12.3387L12.3428 18.8572H11.8843L5.53282 16.5344C5.36139 16.4744 5.23282 16.2987 5.14282 16.0158V11.6701L11.6571 5.13867V5.14296Z" fill="black"/>
<path d="M18 8.16439L12.15 14.0572C12.0687 14.0505 11.9872 14.0462 11.9057 14.0444C11.82 14.0444 11.7428 14.0272 11.67 14.0015C9.90417 13.3751 8.1427 12.7365 6.3857 12.0858C6.21427 12.0215 6.14142 11.9015 6.15427 11.7344L11.8886 6.00867C11.9057 5.99153 11.9314 5.97867 11.9571 5.9701C11.9827 5.96386 12.0096 5.96535 12.0343 5.97439L18 8.1601V8.16439Z" fill="#D36853"/>
<path d="M13.4057 9.83152C12.5399 9.23581 12.4371 8.22867 12.3342 7.92009C12.9406 7.72887 13.5953 7.75925 14.1814 8.00581C14.8757 8.28438 15.0642 8.97009 14.4599 9.46724C14.1599 9.71581 13.8128 9.83581 13.4057 9.83152Z" fill="#8E3216"/>
<path d="M12.3301 7.91992C12.5394 8.60742 13.0041 9.18865 13.6286 9.54421C13.6482 9.5555 13.6644 9.57174 13.6757 9.5913C13.687 9.61086 13.6929 9.63305 13.6929 9.65564C13.6927 9.67708 13.687 9.69812 13.6765 9.71683C13.6661 9.73555 13.6511 9.75134 13.6329 9.76278C13.5644 9.80564 13.4915 9.82707 13.4101 9.83135C12.7029 9.90849 11.1215 9.46278 11.6444 8.48564C11.7644 8.25421 11.9958 8.06992 12.3301 7.91992Z" fill="#681C0A"/>
<path d="M18.0001 8.15137V11.8414C18.0001 11.9699 18.013 12.0899 17.923 12.1757L12.0001 18.0128V14.0571L18.0001 8.15137ZM11.3573 12.1285C10.5858 11.6014 10.1058 10.9885 9.90869 10.2942C10.4712 10.0845 11.0929 10.0999 11.6444 10.3371C12.3987 10.6585 12.673 11.3914 11.8673 11.9185C11.6273 12.0728 11.4558 12.1457 11.3615 12.1328L11.3573 12.1285Z" fill="#8E3216"/>
<path d="M9.90865 10.2944C10.1058 10.9887 10.5901 11.6016 11.3615 12.133C10.6586 12.3044 10.0501 12.2273 9.5315 11.9016C8.72579 11.4001 9.13293 10.5559 9.90865 10.2944Z" fill="#681C0A"/>
<path d="M6.15858 11.7344C6.14573 11.9058 6.22287 12.0215 6.39001 12.0858C7.48287 12.4929 9.24001 13.1315 11.67 13.9972C11.7429 14.0272 11.82 14.0401 11.9057 14.0401H12V18.0129C10.0586 17.2972 7.99716 16.5729 6.08144 15.8915C5.97001 15.8487 6.00001 15.7715 6.00001 15.6558V11.9958C6.00001 11.9015 6.00858 11.8158 6.15858 11.7344Z" fill="#AA472D"/>
</g>
<defs>
<clipPath id="clip0_31_7336">
<rect width="24" height="24" fill="white"/>
</clipPath>
</defs>
</svg>

<svg xmlns="http://www.w3.org/2000/svg" width="24" height="24" fill="none" viewBox="0 0 24 24"><g clip-path="url(#a)"><path fill="#F0F3FA" d="M0 0h24v24H0z"/><path fill="#000" d="M11.657 5.143h.45c2.122.771 4.243 1.543 6.347 2.327q.289.103.403.514v4.355l-6.514 6.518h-.459l-6.351-2.323q-.256-.092-.39-.518V11.67l6.514-6.531z"/><path fill="#D36853" d="m18 8.164-5.85 5.893a4 4 0 0 0-.244-.013.7.7 0 0 1-.236-.043 407 407 0 0 1-5.284-1.915c-.172-.065-.245-.184-.232-.352L11.89 6.01a.2.2 0 0 1 .068-.039.13.13 0 0 1 .077.004L18 8.16z"/><path fill="#8E3216" d="M13.406 9.832c-.866-.596-.969-1.603-1.072-1.912a2.68 2.68 0 0 1 1.847.086c.695.278.883.964.279 1.461-.3.249-.647.369-1.054.365"/><path fill="#681C0A" d="M12.33 7.92c.21.687.674 1.269 1.299 1.624a.13.13 0 0 1 .064.112.13.13 0 0 1-.06.107.45.45 0 0 1-.223.068c-.707.077-2.289-.368-1.766-1.345.12-.232.352-.416.686-.566"/><path fill="#8E3216" d="M18 8.151v3.69c0 .129.013.249-.077.335L12 18.013v-3.956zm-6.643 3.978c-.771-.528-1.251-1.14-1.448-1.835a2.33 2.33 0 0 1 1.735.043c.755.322 1.029 1.054.223 1.582q-.362.232-.506.214z"/><path fill="#681C0A" d="M9.909 10.294q.295 1.042 1.452 1.839-1.052.256-1.83-.231c-.805-.502-.398-1.346.378-1.608"/><path fill="#AA472D" d="M6.159 11.734q-.02.256.231.352c1.093.407 2.85 1.046 5.28 1.911q.108.044.236.043H12v3.973c-1.941-.716-4.003-1.44-5.919-2.122-.111-.042-.081-.12-.081-.235v-3.66c0-.095.009-.18.159-.262"/></g><defs><clipPath id="a"><path fill="#fff" d="M0 0h24v24H0z"/></clipPath></defs></svg>
